src/assets/icons/right-circle.svg

<svg width="50" height="50" viewBox="0 0 50 50" fill="none" xmlns="http://www.w3.org/2000/svg">
<path d="M15.4 24C14.8477 24 14.4 24.4477 14.4 25C14.4 25.5523 14.8477 26 15.4 26V25L15.4 24ZM32.68 25V24V24V25ZM27.6239 14.6897C27.2317 14.301 26.5985 14.3038 26.2097 14.6961C25.821 15.0883 25.8238 15.7215 26.2161 16.1103L26.92 15.4L27.6239 14.6897ZM30.3049 18.7548L29.601 19.4651V19.4651L30.3049 18.7548ZM30.3049 31.2452L29.601 30.5349V30.5349L30.3049 31.2452ZM26.2161 33.8897C25.8238 34.2785 25.821 34.9117 26.2097 35.3039C26.5985 35.6962 27.2317 35.699 27.6239 35.3103L26.92 34.6L26.2161 33.8897ZM34.5618 24.3984L35.5538 24.272L35.5538 24.272L34.5618 24.3984ZM34.5618 25.6016L35.5538 25.728L35.5538 25.728L34.5618 25.6016ZM34.6 25H35.6H34.6ZM49 25H48C48 37.7026 37.7026 48 25 48V49V50C38.8071 50 50 38.8071 50 25H49ZM25 49V48C12.2975 48 2 37.7026 2 25H1H0C0 38.8071 11.1929 50 25 50V49ZM1 25H2C2 12.2975 12.2975 2 25 2V1V0C11.1929 0 0 11.1929 0 25H1ZM25 1V2C37.7026 2 48 12.2975 48 25H49H50C50 11.1929 38.8071 0 25 0V1ZM15.4 25V26L32.68 26V25V24L15.4 24L15.4 25ZM26.92 15.4L26.2161 16.1103L29.601 19.4651L30.3049 18.7548L31.0088 18.0446L27.6239 14.6897L26.92 15.4ZM30.3049 31.2452L29.601 30.5349L26.2161 33.8897L26.92 34.6L27.6239 35.3103L31.0088 31.9554L30.3049 31.2452ZM30.3049 18.7548L29.601 19.4651C30.9674 20.8193 31.9311 21.7766 32.588 22.5946C33.2323 23.3969 33.4988 23.9676 33.5698 24.5248L34.5618 24.3984L35.5538 24.272C35.417 23.1987 34.9048 22.2854 34.1474 21.3423C33.4027 20.415 32.3418 19.3657 31.0088 18.0446L30.3049 18.7548ZM30.3049 31.2452L31.0088 31.9554C32.3418 30.6343 33.4027 29.585 34.1474 28.6577C34.9048 27.7146 35.417 26.8013 35.5538 25.728L34.5618 25.6016L33.5698 25.4752C33.4988 26.0324 33.2323 26.6031 32.588 27.4054C31.9311 28.2234 30.9674 29.1807 29.601 30.5349L30.3049 31.2452ZM34.5618 24.3984L33.5698 24.5248C33.59 24.6826 33.6 24.8413 33.6 25L34.6 25H35.6C35.6 24.7568 35.5846 24.5137 35.5538 24.272L34.5618 24.3984ZM34.6 25L33.6 25C33.6 25.1587 33.59 25.3174 33.5698 25.4752L34.5618 25.6016L35.5538 25.728C35.5846 25.4863 35.6 25.2432 35.6 25H34.6ZM32.68 25V26H34.6V25V24H32.68V25Z" fill="#F4F4F9"/>
</svg>

<svg xmlns="http://www.w3.org/2000/svg" width="50" height="50" fill="none" viewBox="0 0 50 50"><path fill="#f4f4f9" d="M15.4 24a1 1 0 1 0 0 2v-2m17.28 1v-1zm-5.056-10.31a1 1 0 0 0-1.408 1.42l.704-.71zm2.68 4.065-.703.71zm0 12.49-.703-.71zm-4.088 2.645a1 1 0 0 0 1.408 1.42l-.704-.71zm8.346-9.492.992-.126zm0 1.204.992.126zM34.6 25h1zM49 25h-1c0 12.703-10.297 23-23 23v2c13.807 0 25-11.193 25-25zM25 49v-1C12.298 48 2 37.703 2 25H0c0 13.807 11.193 25 25 25zM1 25h1C2 12.298 12.298 2 25 2V0C11.193 0 0 11.193 0 25zM25 1v1c12.703 0 23 10.298 23 23h2C50 11.193 38.807 0 25 0zm-9.6 24v1h17.28v-2H15.4zm11.52-9.6-.704.71 3.385 3.355.704-.71.704-.71-3.385-3.355zm3.385 15.845-.704-.71-3.385 3.355.704.71.704.71 3.385-3.355zm0-12.49-.704.71c1.366 1.354 2.33 2.312 2.987 3.13.644.802.91 1.373.982 1.93l.992-.127.992-.126c-.137-1.073-.65-1.987-1.407-2.93-.744-.927-1.805-1.976-3.138-3.297zm0 12.49.704.71c1.333-1.32 2.394-2.37 3.138-3.297.758-.943 1.27-1.857 1.407-2.93l-.992-.126-.992-.127c-.071.557-.338 1.128-.982 1.93-.657.818-1.62 1.776-2.987 3.13zm4.257-6.847-.992.127q.03.237.03.475h2q0-.365-.046-.728zM34.6 25h-1q0 .238-.03.475l.992.127.992.126q.046-.363.046-.728zm-1.92 0v1h1.92v-2h-1.92z"/></svg>
